X:1
T:Carol, CMD
T:Carol, CMD
T:Richard Storrs Willis, 1849
T:Public Domain Courtesy of the Cyber Hymnal™
C:Richard Storrs Willis, 1849
Z:Public Domain
Z:Courtesy of the Cyber Hymnal™
%%score ( 1 2 ) ( 3 4 )
L:1/8
Q:1/4=85
M:6/8
K:Bb
V:1 treble 
V:2 treble 
V:3 bass 
V:4 bass 
V:1
 [DF] | [Dd]2 [DA] (cB)[EG] | [DF]2 [EG] [DF]2 [DF] | (GA)[EB] (Bc)[_Ed] | [Fc]3- [Fc]2 [DF] | %5
 [Dd]2 [DA] (cB)[EG] | [DF]2 [EG] [DF]2 F | [EG]2 [EG] (AG)[EF] | [DB]3- [DB]2 [Dd] | %9
 [Dd]2 D (=D[D=E])[_D^F] | [DG]2 [DA] [DB]2 [Dd] | (cB)[FA] (GA)[_EG] | F3- F2 [EF] | %13
 [Dd]2 [DA] (cB)[EG] | [DF]2 [EG] [DF]2 F | [EG]2 [EG] (AG)F | [DB]3- [DB]2 |] %17
V:2
 x | x3 E2 x | x6 | E2 =E2 x2 | x6 | x3 E2 x | x6 | x3 E2 x | x6 | x2 _D x3 | x6 | D2 =E2 x2 | x6 | %13
 x3 E2 x | x6 | x3 E2 E | x5 |] %17
V:3
 [B,,F,] | [B,,F,]2 [B,,^F,] [B,,G,]2 [B,,A,] | [B,,B,]2 [A,,F,] [B,,F,]2 [B,,B,] | %3
 B,2 [G,B,] [G,B,]2 [C,B,] | [F,A,]3- [F,A,]2 [B,,F,] | [B,,F,]2 [B,,^F,] [B,,G,]2 [B,,A,] | %6
 [B,,B,]2 [A,,F,] [B,,F,]2 [D,B,] | [E,B,]2 [C,C] (CB,)[F,A,] | [B,,B,]3- [B,,B,]2 D, | %9
 D,2 [D,^F,] (F,G,)[C,A,] | [B,,G,]2 [D,^F,] G,2 [B,,G,] | (A,D)[C,C] (B,C)[C,B,] | %12
 [F,A,]3- [F,A,]2 [F,A,] | [B,,F,]2 [B,,^F,] [B,,G,]2 [B,,A,] | [B,,B,]2 [A,,F,] [B,,F,]2 [D,B,] | %15
 [E,B,]2 [C,C] (CB,)[F,A,] | [B,,B,]3- [B,,B,]2 |] %17
V:4
 x | x6 | x6 | (E,F,) x4 | x6 | x6 | x6 | x3 F,2 x | x6 | x3 D,2 x | x6 | C,2 C,2 x2 | x6 | x6 | %14
 x6 | x3 F,2 x | x5 |] %17

